X:1
T:Lake Enon, SM
T:Isaac Baker Woodbury, 1856
T:Lake Enon, SM
T:Public Domain
C:Isaac Baker Woodbury, 1856
Z:Public Domain
%%score ( 1 2 ) ( 3 4 )
L:1/8
M:4/4
K:A
V:1 treble 
V:2 treble 
V:3 bass 
V:4 bass 
V:1
 [CE]2 | [CE]2 [Ec]2 [Ec]2 [DB]2 | [CA]6 E2 | E2 [Ed]2 [Ed]2 [Ec]2 | [EB]6 [EB]2 | %5
 [Ec]2 [Ee]2 [Ee]2 [Ec]2 | [Ec]2 [EA]2 [FA]2 [DF]2 | [CE]2 [Ec]2 [Ec]2 [DB]2 | [CA]6 |] %9
V:2
 x2 | x8 | x6 E2 | x8 | x8 | x8 | x8 | x8 | x6 |] %9
V:3
 [A,,A,]2 | [A,,A,]2 [A,,A,]2 [A,,A,]2 [A,,A,]2 | [A,,A,]6 [A,C]2 | [A,C]2 [G,B,]2 [E,B,]2 A,2 | %4
 [E,G,]6 [E,G,]2 | A,2 [A,C]2 [A,C]2 A,2 | [A,E]2 [C,E]2 [D,D]2 [D,A,]2 | %7
 [E,A,]2 [E,A,]2 [E,A,]2 [E,G,]2 | [A,,A,]6 |] %9
V:4
 x2 | x8 | x8 | x8 | x8 | x6 A,2 | x8 | x8 | x6 |] %9

